X:21132 
T:MISS BLAIR'S FANCY 
B:DMI.0168
Z:Nordberg/Black
R:jig
%Q:1/4=160
M:6/8
L:1/8
K:G
B|dBG GBG|AFD DFD|EFG ABc|BAG FED|
dBG GBG|AFD DFD|EFG AFD|G3 G2:|
B|d2d dBd|gfg dBG|cec BdB|ABG AFD|
[1 dBd dBd|gfg dBG|EFG AFD|G3 G2:|
[2 dBd def|gba gdB|EFG AFD|G3 G3|]

%%%

